X:1
T:Emperor's Hymn (String Quartet Op. 76 No. 3)
C:Joseph Haydn
M:4/4
L:1/4
Q:1/4=72
K:C
C E F E | D E C2 | G F E F | G2 E2 | F E D E | F2 D2 | G F E D | C4 |]
